X:681
T:
N:»Fria valet», dans efter kadriljen,
S:uppt. efter »Florsen» i Burs.
R:kadrilj
O:Gotland, Burs
M:C
L:1/16
K:G
GBdB GBdB B2A2 A2Bc|d2ef g2fg a2a2 gfed|GBdB GBdB B2A2 A2Bc|d2ef g2fg a4
g4::Lb4 g2fg a2a2 a4|1 Lf4 d2ef g2g2 g4:|2 Lf4 d2ef g2g2 g2|:Bc|d2de d2Bc d2de
d2Bc|d2ef gfga b3a gfed|c2cd c2Ac B2Bc B2AB|cedc BAGF F2G2 G2:|

